X:78
M:6/8
L:1/8
K:Bb
|: (3f_af (3dfd | (3=BdB (3GBd | (3ege (3cec | (3AcA (3FAc | (3BFB (3dBd | (3fdf (3bfe | (3dcB (3FGA | B2 B,2 :|

